X: 118
Q: "Allegretto."
M: 2/4
L: 1/4
K: Bb
d2 | c B | A G | F2 | F G | A B | c d | (f e) | d2 | c B |
d B | F2 | G A | B F | G A | B c | d c | F A | B2- | B z |]


